COLOR/action 16/16/layer-duplicate.svg

<svg viewBox="0 0 16 16" xmlns="http://www.w3.org/2000/svg"><g stroke-width="1.166667"><path d="m4.5 3.8333333-3.5 3.5h10.5l3.5-3.5zm0 4.6666667-3.5 3.5h10.5l3.5-3.5z" fill="#1a7fd4"/><path d="m4.5 3.8339844-3.5 3.5h.5l3-3h10l.5-.5zm0 4.6660156-3.5 3.5h.5l3-3h10l.5-.5z" fill="#fff" opacity=".3"/><path d="m11.5 12 3.5-3.5000002h-.5l-3 3.0000002h-9.9999998l-.5.5zm0-4.6660158 3.5-3.5h-.5l-3 3h-9.9999998l-.5.5z" opacity=".2"/></g></svg>

<?xml version="1.0" encoding="UTF-8" standalone="no"?>
<svg
   xmlns:dc="http://purl.org/dc/elements/1.1/"
   xmlns:cc="http://creativecommons.org/ns#"
   xmlns:rdf="http://www.w3.org/1999/02/22-rdf-syntax-ns#"
   xmlns:svg="http://www.w3.org/2000/svg"
   xmlns="http://www.w3.org/2000/svg"
   xmlns:sodipodi="http://sodipodi.sourceforge.net/DTD/sodipodi-0.dtd"
   xmlns:inkscape="http://www.inkscape.org/namespaces/inkscape"
   viewBox="0 0 16 16"
   version="1.1"
   id="svg4"
   sodipodi:docname="layer-duplicate.svg"
   inkscape:version="0.92.4 (5da689c313, 2019-01-14)">
  <metadata
     id="metadata10">
    <rdf:RDF>
      <cc:Work
         rdf:about="">
        <dc:format>image/svg+xml</dc:format>
        <dc:type
           rdf:resource="http://purl.org/dc/dcmitype/StillImage" />
      </cc:Work>
    </rdf:RDF>
  </metadata>
  <defs
     id="defs8" />
  <sodipodi:namedview
     pagecolor="#ffffff"
     bordercolor="#666666"
     borderopacity="1"
     objecttolerance="10"
     gridtolerance="10"
     guidetolerance="10"
     inkscape:pageopacity="0"
     inkscape:pageshadow="2"
     inkscape:window-width="1920"
     inkscape:window-height="1016"
     id="namedview6"
     showgrid="false"
     inkscape:zoom="14.75"
     inkscape:cx="8.0677966"
     inkscape:cy="8"
     inkscape:window-x="0"
     inkscape:window-y="27"
     inkscape:window-maximized="1"
     inkscape:current-layer="svg4" />
  <path
     d="m 4.5,3.8333333 -3.5,3.5 h 10.5 l 3.5,-3.5 z M 4.5,8.5 1,12 H 11.5 L 15,8.5 Z"
     id="path2"
     inkscape:connector-curvature="0"
     style="fill:#1a7fd4;stroke-width:1.16666663" />
  <path
     style="fill:#ffffff;stroke-width:1.16666663;fill-opacity:1;opacity:0.3"
     d="M 4.5 3.8339844 L 1 7.3339844 L 1.5 7.3339844 L 4.5 4.3339844 L 14.5 4.3339844 L 15 3.8339844 L 4.5 3.8339844 z M 4.5 8.5 L 1 12 L 1.5 12 L 4.5 9 L 14.5 9 L 15 8.5 L 4.5 8.5 z "
     id="path817" />
  <path
     id="path822"
     d="M 11.5,12 15,8.4999998 H 14.5 L 11.5,11.5 H 1.5000002 l -0.5,0.5 z m 0,-4.6660158 3.5,-3.5 h -0.5 l -3,3 H 1.5000002 l -0.5,0.5 z"
     style="opacity:0.2;fill:#000000;fill-opacity:1;stroke-width:1.16666663"
     inkscape:connector-curvature="0" />
</svg>
